assets/manjaro/mono.svg

<svg viewBox="0 0 24 24" xmlns="http://www.w3.org/2000/svg"><path d="m2.182 0a2.177 2.177 0 0 0 -2.182 2.182v19.636c0 1.209.973 2.182 2.182 2.182h4.363v-17.455h8.728v-6.545zm15.273 0v24h4.363a2.177 2.177 0 0 0 2.182-2.182v-19.636a2.177 2.177 0 0 0 -2.182-2.182zm-8.728 8.727v15.273h6.546v-15.273z"/></svg>

<svg xmlns="http://www.w3.org/2000/svg" viewBox="0 0 24 24"><path d="M2.182 0A2.177 2.177 0 0 0 0 2.182v19.636C0 23.027.973 24 2.182 24h4.363V6.545h8.728V0zm15.273 0v24h4.363A2.177 2.177 0 0 0 24 21.818V2.182A2.177 2.177 0 0 0 21.818 0zM8.727 8.727V24h6.546V8.727z"/></svg>
